; G-Code generated by Simplify3D(R) Version 4.1.2
; Sep 17, 2024 at 8:49:48 AM
; Settings Summary
;   processName,Process1
;   applyToModels,tower_tensile_strength_mod
;   profileName,BTU 1 (modified)
;   profileVersion,2021-01-29 08:08:39
;   baseProfile,Default
;   printMaterial,PLA
;   printQuality,Medium
;   printExtruders,
;   extruderName,Primary Extruder
;   extruderToolheadNumber,0
;   extruderDiameter,4
;   extruderAutoWidth,0
;   extruderWidth,6
;   extrusionMultiplier,1
;   extruderUseRetract,0
;   extruderRetractionDistance,6
;   extruderExtraRestartDistance,6
;   extruderRetractionZLift,5
;   extruderRetractionSpeed,1800
;   extruderUseCoasting,0
;   extruderCoastingDistance,0.2
;   extruderUseWipe,0
;   extruderWipeDistance,20
;   primaryExtruder,0
;   layerHeight,1.5
;   topSolidLayers,0
;   bottomSolidLayers,0
;   perimeterOutlines,1
;   printPerimetersInsideOut,0
;   startPointOption,3
;   startPointOriginX,0
;   startPointOriginY,1000
;   sequentialIslands,0
;   spiralVaseMode,1
;   firstLayerHeightPercentage,100
;   firstLayerWidthPercentage,100
;   firstLayerUnderspeed,1
;   useRaft,0
;   raftExtruder,0
;   raftTopLayers,1
;   raftBaseLayers,1
;   raftOffset,150
;   raftSeparationDistance,0
;   raftTopInfill,100
;   aboveRaftSpeedMultiplier,0.3
;   useSkirt,0
;   skirtExtruder,0
;   skirtLayers,1
;   skirtOutlines,1
;   skirtOffset,0
;   usePrimePillar,0
;   primePillarExtruder,999
;   primePillarWidth,12
;   primePillarLocation,7
;   primePillarSpeedMultiplier,1
;   useOozeShield,0
;   oozeShieldExtruder,999
;   oozeShieldOffset,2
;   oozeShieldOutlines,1
;   oozeShieldSidewallShape,1
;   oozeShieldSidewallAngle,30
;   oozeShieldSpeedMultiplier,1
;   infillExtruder,0
;   internalInfillPattern,Wiggle
;   externalInfillPattern,Rectilinear
;   infillPercentage,0
;   outlineOverlapPercentage,20
;   infillExtrusionWidthPercentage,100
;   minInfillLength,0
;   infillLayerInterval,1
;   internalInfillAngles,0
;   overlapInternalInfillAngles,0
;   externalInfillAngles,44,46
;   generateSupport,0
;   supportExtruder,0
;   supportInfillPercentage,30
;   supportExtraInflation,5
;   supportBaseLayers,4
;   denseSupportExtruder,0
;   denseSupportLayers,2
;   denseSupportInfillPercentage,90
;   supportLayerInterval,2
;   supportHorizontalPartOffset,1
;   supportUpperSeparationLayers,1
;   supportLowerSeparationLayers,1
;   supportType,1
;   supportGridSpacing,10
;   maxOverhangAngle,20
;   supportAngles,45
;   temperatureName,Cama caliente
;   temperatureNumber,0
;   temperatureSetpointCount,1
;   temperatureSetpointLayers,1
;   temperatureSetpointTemperatures,80
;   temperatureStabilizeAtStartup,0
;   temperatureHeatedBed,1
;   fanLayers,1,2
;   fanSpeeds,0,100
;   blipFanToFullPower,0
;   adjustSpeedForCooling,0
;   minSpeedLayerTime,80
;   minCoolingSpeedSlowdown,10
;   increaseFanForCooling,0
;   minFanLayerTime,45
;   maxCoolingFanSpeed,100
;   increaseFanForBridging,0
;   bridgingFanSpeed,100
;   use5D,1
;   relativeEdistances,1
;   allowEaxisZeroing,1
;   independentExtruderAxes,0
;   includeM10123,0
;   stickySupport,1
;   applyToolheadOffsets,0
;   gcodeXoffset,0
;   gcodeYoffset,0
;   gcodeZoffset,0
;   overrideMachineDefinition,1
;   machineTypeOverride,0
;   strokeXoverride,1300
;   strokeYoverride,2500
;   strokeZoverride,1000
;   originOffsetXoverride,0
;   originOffsetYoverride,0
;   originOffsetZoverride,0
;   homeXdirOverride,-1
;   homeYdirOverride,-1
;   homeZdirOverride,1
;   flipXoverride,1
;   flipYoverride,-1
;   flipZoverride,1
;   toolheadOffsets,0,0|0,0|0,0|0,0|0,0|0,0
;   overrideFirmwareConfiguration,0
;   firmwareTypeOverride,RepRap (Marlin/Repetier/Sprinter)
;   GPXconfigOverride,r2
;   baudRateOverride,115200
;   overridePrinterModels,0
;   printerModelsOverride
;   startingGcode,G29 S1,M106 P0 S1,M80,G28 Z ; Home Z,G1 X0 Y0 Z100,G91,G1 E200 S2 F3000,G90,
;   layerChangeGcode,
;   retractionGcode,
;   toolChangeGcode,
;   endingGcode,M81                                      ; OFF Heaters,G1 X600 Y2000 F12000,M42 P0 S0		; OFF Vacuum	,M140 S0,,,
;   exportFileFormat,gcode
;   celebration,0
;   celebrationSong,Star Wars
;   postProcessing,
;   defaultSpeed,3600
;   outlineUnderspeed,1
;   solidInfillUnderspeed,1
;   supportUnderspeed,1
;   rapidXYspeed,12000
;   rapidZspeed,1500
;   minBridgingArea,50
;   bridgingExtraInflation,0
;   bridgingExtrusionMultiplier,1
;   bridgingSpeedMultiplier,1
;   useFixedBridgingAngle,0
;   fixedBridgingAngle,0
;   applyBridgingToPerimeters,0
;   filamentDiameters,5|5|2.5|2.5|2.5|2.5
;   filamentPricesPerKg,25|20|2|2|2|2
;   filamentDensities,1.25|1.04|1.04|1.04|1.04|1.04
;   useMinPrintHeight,0
;   minPrintHeight,20
;   useMaxPrintHeight,0
;   maxPrintHeight,224
;   useDiaphragm,0
;   diaphragmLayerInterval,20
;   robustSlicing,1
;   mergeAllIntoSolid,0
;   onlyRetractWhenCrossingOutline,0
;   retractBetweenLayers,0
;   useRetractionMinTravel,1
;   retractionMinTravel,20
;   retractWhileWiping,1
;   onlyWipeOutlines,0
;   avoidCrossingOutline,0
;   maxMovementDetourFactor,2
;   toolChangeRetractionDistance,0
;   toolChangeExtraRestartDistance,0
;   toolChangeRetractionSpeed,600
;   externalThinWallType,1
;   internalThinWallType,1
;   thinWallAllowedOverlapPercentage,10
;   singleExtrusionMinLength,2
;   singleExtrusionMinPrintingWidthPercentage,70
;   singleExtrusionMaxPrintingWidthPercentage,125
;   singleExtrusionEndpointExtension,0.2
;   horizontalSizeCompensation,0
G90
M83
M106 S0
M140 S80
G29 S1
M106 P0 S1
M80
G28 Z ; Home Z
G1 X0 Y0 Z100
G91
G1 E200 S2 F3000
G90
; process Process1
; layer 1, Z = 1.500
T0
; feature external single extrusion
; tool H1.500 W6.600
G1 Z1.500 F1500
G1 X159.320 Y339.539 F12000
G1 X158.120 Y339.179 E0.6317 F3600
; tool H1.500 W6.976
G1 X158.017 Y339.100 E0.0695
; tool H1.500 W6.628
G1 X157.652 Y337.914 E0.6285
; tool H1.500 W6.131
G1 X157.521 Y336.727 E0.5591
; tool H1.500 W6.000
G1 X157.520 Y335.541 E0.5439
; tool H1.500 W6.000
G1 X157.520 Y279.778 E25.5597
; tool H1.500 W6.000
G1 X157.521 Y278.592 E0.5439
; tool H1.500 W6.131
G1 X157.652 Y277.405 E0.5591
; tool H1.500 W6.628
G1 X158.017 Y276.219 E0.6285
; tool H1.500 W6.976
G1 X158.120 Y276.139 E0.0695
; tool H1.500 W6.600
G1 X159.320 Y275.779 E0.6317
; tool H1.500 W6.120
G1 X160.520 Y275.659 E0.5638
; tool H1.500 W6.000
G1 X161.720 Y275.659 E0.5500
G1 X597.320 Y275.659 E199.6643
G1 X598.520 Y275.659 E0.5500
; tool H1.500 W6.120
G1 X599.720 Y275.779 E0.5638
; tool H1.500 W6.600
G1 X600.920 Y276.139 E0.6317
; tool H1.500 W6.976
G1 X601.024 Y276.219 E0.0695
; tool H1.500 W6.628
G1 X601.389 Y277.405 E0.6285
; tool H1.500 W6.131
G1 X601.520 Y278.592 E0.5591
; tool H1.500 W6.000
G1 X601.520 Y279.778 E0.5439
; tool H1.500 W6.000
G1 X601.520 Y335.541 E25.5597
; tool H1.500 W6.000
G1 X601.520 Y336.727 E0.5439
; tool H1.500 W6.131
G1 X601.389 Y337.914 E0.5591
; tool H1.500 W6.366
G1 X600.920 Y339.179 E0.6564
; tool H1.500 W6.600
G1 X599.720 Y339.539 E0.6317
; tool H1.500 W6.120
G1 X598.520 Y339.659 E0.5638
; tool H1.500 W6.000
G1 X597.320 Y339.659 E0.5500
G1 X161.720 Y339.659 E199.6643
G1 X160.520 Y339.659 E0.5500
; tool H1.500 W6.120
G1 X159.320 Y339.539 E0.5638
; layer 2, Z = 3.000
M106 S255
; tool H1.500 W6.600
G1 Z3.000 F1500
G1 X158.120 Y339.179 E0.6317 F3600
; tool H1.500 W6.976
G1 X158.017 Y339.100 E0.0695
; tool H1.500 W6.628
G1 X157.652 Y337.914 E0.6285
; tool H1.500 W6.131
G1 X157.521 Y336.727 E0.5591
; tool H1.500 W6.000
G1 X157.520 Y335.541 E0.5439
; tool H1.500 W6.000
G1 X157.520 Y279.778 E25.5597
; tool H1.500 W6.000
G1 X157.521 Y278.592 E0.5439
; tool H1.500 W6.131
G1 X157.652 Y277.405 E0.5591
; tool H1.500 W6.628
G1 X158.017 Y276.219 E0.6285
; tool H1.500 W6.976
G1 X158.120 Y276.139 E0.0695
; tool H1.500 W6.600
G1 X159.320 Y275.779 E0.6317
; tool H1.500 W6.120
G1 X160.520 Y275.659 E0.5638
; tool H1.500 W6.000
G1 X161.720 Y275.659 E0.5500
G1 X597.320 Y275.659 E199.6643
G1 X598.520 Y275.659 E0.5500
; tool H1.500 W6.120
G1 X599.720 Y275.779 E0.5638
; tool H1.500 W6.600
G1 X600.920 Y276.139 E0.6317
; tool H1.500 W6.976
G1 X601.024 Y276.219 E0.0695
; tool H1.500 W6.628
G1 X601.389 Y277.405 E0.6285
; tool H1.500 W6.131
G1 X601.520 Y278.592 E0.5591
; tool H1.500 W6.000
G1 X601.520 Y279.778 E0.5439
; tool H1.500 W6.000
G1 X601.520 Y335.541 E25.5597
; tool H1.500 W6.000
G1 X601.520 Y336.727 E0.5439
; tool H1.500 W6.131
G1 X601.389 Y337.914 E0.5591
; tool H1.500 W6.366
G1 X600.920 Y339.179 E0.6564
; tool H1.500 W6.600
G1 X599.720 Y339.539 E0.6317
; tool H1.500 W6.120
G1 X598.520 Y339.659 E0.5638
; tool H1.500 W6.000
G1 X597.320 Y339.659 E0.5500
G1 X161.720 Y339.659 E199.6643
G1 X160.520 Y339.659 E0.5500
; tool H1.500 W6.120
G1 X159.320 Y339.539 E0.5638
; layer 3, Z = 4.500
; tool H1.500 W6.600
G1 Z4.500 F1500
G1 X158.120 Y339.179 E0.6317 F3600
; tool H1.500 W6.976
G1 X158.017 Y339.100 E0.0695
; tool H1.500 W6.628
G1 X157.652 Y337.914 E0.6285
; tool H1.500 W6.131
G1 X157.521 Y336.727 E0.5591
; tool H1.500 W6.000
G1 X157.520 Y335.541 E0.5439
; tool H1.500 W6.000
G1 X157.520 Y279.778 E25.5597
; tool H1.500 W6.000
G1 X157.521 Y278.592 E0.5439
; tool H1.500 W6.131
G1 X157.652 Y277.405 E0.5591
; tool H1.500 W6.628
G1 X158.017 Y276.219 E0.6285
; tool H1.500 W6.976
G1 X158.120 Y276.139 E0.0695
; tool H1.500 W6.600
G1 X159.320 Y275.779 E0.6317
; tool H1.500 W6.120
G1 X160.520 Y275.659 E0.5638
; tool H1.500 W6.000
G1 X161.720 Y275.659 E0.5500
G1 X597.320 Y275.659 E199.6643
G1 X598.520 Y275.659 E0.5500
; tool H1.500 W6.120
G1 X599.720 Y275.779 E0.5638
; tool H1.500 W6.600
G1 X600.920 Y276.139 E0.6317
; tool H1.500 W6.976
G1 X601.024 Y276.219 E0.0695
; tool H1.500 W6.628
G1 X601.389 Y277.405 E0.6285
; tool H1.500 W6.131
G1 X601.520 Y278.592 E0.5591
; tool H1.500 W6.000
G1 X601.520 Y279.778 E0.5439
; tool H1.500 W6.000
G1 X601.520 Y335.541 E25.5597
; tool H1.500 W6.000
G1 X601.520 Y336.727 E0.5439
; tool H1.500 W6.131
G1 X601.389 Y337.914 E0.5591
; tool H1.500 W6.366
G1 X600.920 Y339.179 E0.6564
; tool H1.500 W6.600
G1 X599.720 Y339.539 E0.6317
; tool H1.500 W6.120
G1 X598.520 Y339.659 E0.5638
; tool H1.500 W6.000
G1 X597.320 Y339.659 E0.5500
G1 X161.720 Y339.659 E199.6643
G1 X160.520 Y339.659 E0.5500
; tool H1.500 W6.120
G1 X159.320 Y339.539 E0.5638
; layer 4, Z = 6.000
; tool H1.500 W6.600
G1 Z6.000 F1500
G1 X158.120 Y339.179 E0.6317 F3600
; tool H1.500 W6.976
G1 X158.017 Y339.100 E0.0695
; tool H1.500 W6.628
G1 X157.652 Y337.914 E0.6285
; tool H1.500 W6.131
G1 X157.521 Y336.727 E0.5591
; tool H1.500 W6.000
G1 X157.520 Y335.541 E0.5439
; tool H1.500 W6.000
G1 X157.520 Y279.778 E25.5597
; tool H1.500 W6.000
G1 X157.521 Y278.592 E0.5439
; tool H1.500 W6.131
G1 X157.652 Y277.405 E0.5591
; tool H1.500 W6.628
G1 X158.017 Y276.219 E0.6285
; tool H1.500 W6.976
G1 X158.120 Y276.139 E0.0695
; tool H1.500 W6.600
G1 X159.320 Y275.779 E0.6317
; tool H1.500 W6.120
G1 X160.520 Y275.659 E0.5638
; tool H1.500 W6.000
G1 X161.720 Y275.659 E0.5500
G1 X597.320 Y275.659 E199.6643
G1 X598.520 Y275.659 E0.5500
; tool H1.500 W6.120
G1 X599.720 Y275.779 E0.5638
; tool H1.500 W6.600
G1 X600.920 Y276.139 E0.6317
; tool H1.500 W6.976
G1 X601.024 Y276.219 E0.0695
; tool H1.500 W6.628
G1 X601.389 Y277.405 E0.6285
; tool H1.500 W6.131
G1 X601.520 Y278.592 E0.5591
; tool H1.500 W6.000
G1 X601.520 Y279.778 E0.5439
; tool H1.500 W6.000
G1 X601.520 Y335.541 E25.5597
; tool H1.500 W6.000
G1 X601.520 Y336.727 E0.5439
; tool H1.500 W6.131
G1 X601.389 Y337.914 E0.5591
; tool H1.500 W6.366
G1 X600.920 Y339.179 E0.6564
; tool H1.500 W6.600
G1 X599.720 Y339.539 E0.6317
; tool H1.500 W6.120
G1 X598.520 Y339.659 E0.5638
; tool H1.500 W6.000
G1 X597.320 Y339.659 E0.5500
G1 X161.720 Y339.659 E199.6643
G1 X160.520 Y339.659 E0.5500
; tool H1.500 W6.120
G1 X159.320 Y339.539 E0.5638
; layer 5, Z = 7.500
; tool H1.500 W6.600
G1 Z7.500 F1500
G1 X158.120 Y339.179 E0.6317 F3600
; tool H1.500 W6.976
G1 X158.017 Y339.100 E0.0695
; tool H1.500 W6.628
G1 X157.652 Y337.914 E0.6285
; tool H1.500 W6.131
G1 X157.521 Y336.727 E0.5591
; tool H1.500 W6.000
G1 X157.520 Y335.541 E0.5439
; tool H1.500 W6.000
G1 X157.520 Y279.778 E25.5597
; tool H1.500 W6.000
G1 X157.521 Y278.592 E0.5439
; tool H1.500 W6.131
G1 X157.652 Y277.405 E0.5591
; tool H1.500 W6.628
G1 X158.017 Y276.219 E0.6285
; tool H1.500 W6.976
G1 X158.120 Y276.139 E0.0695
; tool H1.500 W6.600
G1 X159.320 Y275.779 E0.6317
; tool H1.500 W6.120
G1 X160.520 Y275.659 E0.5638
; tool H1.500 W6.000
G1 X161.720 Y275.659 E0.5500
G1 X597.320 Y275.659 E199.6643
G1 X598.520 Y275.659 E0.5500
; tool H1.500 W6.120
G1 X599.720 Y275.779 E0.5638
; tool H1.500 W6.600
G1 X600.920 Y276.139 E0.6317
; tool H1.500 W6.976
G1 X601.024 Y276.219 E0.0695
; tool H1.500 W6.628
G1 X601.389 Y277.405 E0.6285
; tool H1.500 W6.131
G1 X601.520 Y278.592 E0.5591
; tool H1.500 W6.000
G1 X601.520 Y279.778 E0.5439
; tool H1.500 W6.000
G1 X601.520 Y335.541 E25.5597
; tool H1.500 W6.000
G1 X601.520 Y336.727 E0.5439
; tool H1.500 W6.131
G1 X601.389 Y337.914 E0.5591
; tool H1.500 W6.366
G1 X600.920 Y339.179 E0.6564
; tool H1.500 W6.600
G1 X599.720 Y339.539 E0.6317
; tool H1.500 W6.120
G1 X598.520 Y339.659 E0.5638
; tool H1.500 W6.000
G1 X597.320 Y339.659 E0.5500
G1 X161.720 Y339.659 E199.6643
G1 X160.520 Y339.659 E0.5500
; tool H1.500 W6.120
G1 X159.320 Y339.539 E0.5638
; layer 6, Z = 9.000
; tool H1.500 W6.600
G1 Z9.000 F1500
G1 X158.120 Y339.179 E0.6317 F3600
; tool H1.500 W6.976
G1 X158.017 Y339.100 E0.0695
; tool H1.500 W6.628
G1 X157.652 Y337.914 E0.6285
; tool H1.500 W6.131
G1 X157.521 Y336.727 E0.5591
; tool H1.500 W6.000
G1 X157.520 Y335.541 E0.5439
; tool H1.500 W6.000
G1 X157.520 Y279.778 E25.5597
; tool H1.500 W6.000
G1 X157.521 Y278.592 E0.5439
; tool H1.500 W6.131
G1 X157.652 Y277.405 E0.5591
; tool H1.500 W6.628
G1 X158.017 Y276.219 E0.6285
; tool H1.500 W6.976
G1 X158.120 Y276.139 E0.0695
; tool H1.500 W6.600
G1 X159.320 Y275.779 E0.6317
; tool H1.500 W6.120
G1 X160.520 Y275.659 E0.5638
; tool H1.500 W6.000
G1 X161.720 Y275.659 E0.5500
G1 X597.320 Y275.659 E199.6643
G1 X598.520 Y275.659 E0.5500
; tool H1.500 W6.120
G1 X599.720 Y275.779 E0.5638
; tool H1.500 W6.600
G1 X600.920 Y276.139 E0.6317
; tool H1.500 W6.976
G1 X601.024 Y276.219 E0.0695
; tool H1.500 W6.628
G1 X601.389 Y277.405 E0.6285
; tool H1.500 W6.131
G1 X601.520 Y278.592 E0.5591
; tool H1.500 W6.000
G1 X601.520 Y279.778 E0.5439
; tool H1.500 W6.000
G1 X601.520 Y335.541 E25.5597
; tool H1.500 W6.000
G1 X601.520 Y336.727 E0.5439
; tool H1.500 W6.131
G1 X601.389 Y337.914 E0.5591
; tool H1.500 W6.366
G1 X600.920 Y339.179 E0.6564
; tool H1.500 W6.600
G1 X599.720 Y339.539 E0.6317
; tool H1.500 W6.120
G1 X598.520 Y339.659 E0.5638
; tool H1.500 W6.000
G1 X597.320 Y339.659 E0.5500
G1 X161.720 Y339.659 E199.6643
G1 X160.520 Y339.659 E0.5500
; tool H1.500 W6.120
G1 X159.320 Y339.539 E0.5638
; layer 7, Z = 10.500
; tool H1.500 W6.600
G1 Z10.500 F1500
G1 X158.120 Y339.179 E0.6317 F3600
; tool H1.500 W6.976
G1 X158.017 Y339.100 E0.0695
; tool H1.500 W6.628
G1 X157.652 Y337.914 E0.6285
; tool H1.500 W6.131
G1 X157.521 Y336.727 E0.5591
; tool H1.500 W6.000
G1 X157.520 Y335.541 E0.5439
; tool H1.500 W6.000
G1 X157.520 Y279.778 E25.5597
; tool H1.500 W6.000
G1 X157.521 Y278.592 E0.5439
; tool H1.500 W6.131
G1 X157.652 Y277.405 E0.5591
; tool H1.500 W6.628
G1 X158.017 Y276.219 E0.6285
; tool H1.500 W6.976
G1 X158.120 Y276.139 E0.0695
; tool H1.500 W6.600
G1 X159.320 Y275.779 E0.6317
; tool H1.500 W6.120
G1 X160.520 Y275.659 E0.5638
; tool H1.500 W6.000
G1 X161.720 Y275.659 E0.5500
G1 X597.320 Y275.659 E199.6643
G1 X598.520 Y275.659 E0.5500
; tool H1.500 W6.120
G1 X599.720 Y275.779 E0.5638
; tool H1.500 W6.600
G1 X600.920 Y276.139 E0.6317
; tool H1.500 W6.976
G1 X601.024 Y276.219 E0.0695
; tool H1.500 W6.628
G1 X601.389 Y277.405 E0.6285
; tool H1.500 W6.131
G1 X601.520 Y278.592 E0.5591
; tool H1.500 W6.000
G1 X601.520 Y279.778 E0.5439
; tool H1.500 W6.000
G1 X601.520 Y335.541 E25.5597
; tool H1.500 W6.000
G1 X601.520 Y336.727 E0.5439
; tool H1.500 W6.131
G1 X601.389 Y337.914 E0.5591
; tool H1.500 W6.366
G1 X600.920 Y339.179 E0.6564
