; G-Code generated by Simplify3D(R) Version 4.1.2
; Nov 15, 2024 at 1:00:08 PM
; Settings Summary
;   processName,Process1
;   applyToModels,Wing_mold_R1
;   profileName,BTU 1 (modified)
;   profileVersion,2021-01-29 08:08:39
;   baseProfile,Default
;   printMaterial,PLA
;   printQuality,Medium
;   printExtruders,
;   extruderName,Primary Extruder
;   extruderToolheadNumber,0
;   extruderDiameter,15
;   extruderAutoWidth,0
;   extruderWidth,18
;   extrusionMultiplier,1
;   extruderUseRetract,0
;   extruderRetractionDistance,6
;   extruderExtraRestartDistance,6
;   extruderRetractionZLift,5
;   extruderRetractionSpeed,1800
;   extruderUseCoasting,0
;   extruderCoastingDistance,0.2
;   extruderUseWipe,0
;   extruderWipeDistance,20
;   primaryExtruder,0
;   layerHeight,18
;   topSolidLayers,0
;   bottomSolidLayers,0
;   perimeterOutlines,1
;   printPerimetersInsideOut,0
;   startPointOption,3
;   startPointOriginX,0
;   startPointOriginY,0
;   sequentialIslands,0
;   spiralVaseMode,1
;   firstLayerHeightPercentage,100
;   firstLayerWidthPercentage,100
;   firstLayerUnderspeed,1
;   useRaft,0
;   raftExtruder,0
;   raftTopLayers,1
;   raftBaseLayers,1
;   raftOffset,150
;   raftSeparationDistance,0
;   raftTopInfill,100
;   aboveRaftSpeedMultiplier,0.3
;   useSkirt,0
;   skirtExtruder,0
;   skirtLayers,1
;   skirtOutlines,1
;   skirtOffset,0
;   usePrimePillar,0
;   primePillarExtruder,999
;   primePillarWidth,12
;   primePillarLocation,7
;   primePillarSpeedMultiplier,1
;   useOozeShield,0
;   oozeShieldExtruder,999
;   oozeShieldOffset,2
;   oozeShieldOutlines,1
;   oozeShieldSidewallShape,1
;   oozeShieldSidewallAngle,30
;   oozeShieldSpeedMultiplier,1
;   infillExtruder,0
;   internalInfillPattern,Wiggle
;   externalInfillPattern,Rectilinear
;   infillPercentage,0
;   outlineOverlapPercentage,20
;   infillExtrusionWidthPercentage,100
;   minInfillLength,0
;   infillLayerInterval,1
;   internalInfillAngles,0
;   overlapInternalInfillAngles,0
;   externalInfillAngles,44,46
;   generateSupport,0
;   supportExtruder,0
;   supportInfillPercentage,30
;   supportExtraInflation,5
;   supportBaseLayers,4
;   denseSupportExtruder,0
;   denseSupportLayers,2
;   denseSupportInfillPercentage,90
;   supportLayerInterval,2
;   supportHorizontalPartOffset,1
;   supportUpperSeparationLayers,1
;   supportLowerSeparationLayers,1
;   supportType,1
;   supportGridSpacing,10
;   maxOverhangAngle,20
;   supportAngles,45
;   temperatureName,Cama caliente
;   temperatureNumber,0
;   temperatureSetpointCount,1
;   temperatureSetpointLayers,1
;   temperatureSetpointTemperatures,80
;   temperatureStabilizeAtStartup,0
;   temperatureHeatedBed,1
;   fanLayers,1,2
;   fanSpeeds,0,100
;   blipFanToFullPower,0
;   adjustSpeedForCooling,0
;   minSpeedLayerTime,80
;   minCoolingSpeedSlowdown,10
;   increaseFanForCooling,0
;   minFanLayerTime,45
;   maxCoolingFanSpeed,100
;   increaseFanForBridging,0
;   bridgingFanSpeed,100
;   use5D,1
;   relativeEdistances,1
;   allowEaxisZeroing,1
;   independentExtruderAxes,0
;   includeM10123,0
;   stickySupport,1
;   applyToolheadOffsets,0
;   gcodeXoffset,0
;   gcodeYoffset,0
;   gcodeZoffset,0
;   overrideMachineDefinition,1
;   machineTypeOverride,0
;   strokeXoverride,1300
;   strokeYoverride,2500
;   strokeZoverride,1000
;   originOffsetXoverride,0
;   originOffsetYoverride,0
;   originOffsetZoverride,0
;   homeXdirOverride,-1
;   homeYdirOverride,-1
;   homeZdirOverride,1
;   flipXoverride,1
;   flipYoverride,-1
;   flipZoverride,1
;   toolheadOffsets,0,0|0,0|0,0|0,0|0,0|0,0
;   overrideFirmwareConfiguration,0
;   firmwareTypeOverride,RepRap (Marlin/Repetier/Sprinter)
;   GPXconfigOverride,r2
;   baudRateOverride,115200
;   overridePrinterModels,0
;   printerModelsOverride
;   startingGcode,G29 S1,M106 P0 S1,M80,G28 Z ; Home Z,G1 X0 Y0 Z100,G91,G1 E200 S2 F3000,G90,
;   layerChangeGcode,
;   retractionGcode,
;   toolChangeGcode,
;   endingGcode,M81                                      ; OFF Heaters,G1 X600 Y2000 F12000,M42 P0 S0		; OFF Vacuum	,M140 S0,,,
;   exportFileFormat,gcode
;   celebration,0
;   celebrationSong,Star Wars
;   postProcessing,
;   defaultSpeed,3000
;   outlineUnderspeed,1
;   solidInfillUnderspeed,1
;   supportUnderspeed,1
;   rapidXYspeed,12000
;   rapidZspeed,1500
;   minBridgingArea,50
;   bridgingExtraInflation,0
;   bridgingExtrusionMultiplier,1
;   bridgingSpeedMultiplier,1
;   useFixedBridgingAngle,0
;   fixedBridgingAngle,0
;   applyBridgingToPerimeters,0
;   filamentDiameters,5|5|2.5|2.5|2.5|2.5
;   filamentPricesPerKg,25|20|2|2|2|2
;   filamentDensities,1.25|1.04|1.04|1.04|1.04|1.04
;   useMinPrintHeight,0
;   minPrintHeight,20
;   useMaxPrintHeight,0
;   maxPrintHeight,224
;   useDiaphragm,0
;   diaphragmLayerInterval,20
;   robustSlicing,1
;   mergeAllIntoSolid,0
;   onlyRetractWhenCrossingOutline,0
;   retractBetweenLayers,0
;   useRetractionMinTravel,0
;   retractionMinTravel,20
;   retractWhileWiping,1
;   onlyWipeOutlines,0
;   avoidCrossingOutline,0
;   maxMovementDetourFactor,2
;   toolChangeRetractionDistance,0
;   toolChangeExtraRestartDistance,0
;   toolChangeRetractionSpeed,600
;   externalThinWallType,1
;   internalThinWallType,1
;   thinWallAllowedOverlapPercentage,50
;   singleExtrusionMinLength,2
;   singleExtrusionMinPrintingWidthPercentage,10
;   singleExtrusionMaxPrintingWidthPercentage,125
;   singleExtrusionEndpointExtension,0.2
;   horizontalSizeCompensation,0
G90
M83
M106 S0
M140 S80
G29 S1
M106 P0 S1
M80
G28 Z ; Home Z
G1 X0 Y0 Z100
G91
G1 E200 S2 F3000
G90
; process Process1
; layer 1, Z = 18.000
T0
; feature external single extrusion
; tool H18.000 W17.967
G1 Z18.000 F1500
G1 X82.379 Y109.738 F12000
; tool H18.000 W17.183
G1 X82.807 Y109.378 E8.8150 F3000
; tool H18.000 W17.201
G1 X83.255 Y109.042 E8.8266
; tool H18.000 W17.228
G1 X83.720 Y108.734 E8.8237
; tool H18.000 W17.264
G1 X84.203 Y108.452 E8.8419
; tool H18.000 W17.308
G1 X84.700 Y108.198 E8.8496
; tool H18.000 W17.361
G1 X85.208 Y107.974 E8.8466
; tool H18.000 W17.422
G1 X85.728 Y107.779 E8.8592
; tool H18.000 W17.491
G1 X86.257 Y107.614 E8.8859
; tool H18.000 W17.567
G1 X86.792 Y107.480 E8.8928
; tool H18.000 W17.651
G1 X87.332 Y107.375 E8.9013
; tool H18.000 W17.741
G1 X87.876 Y107.301 E8.9158
; tool H18.000 W17.834
G1 X88.419 Y107.254 E8.9216
; tool H18.000 W17.914
G1 X88.961 Y107.221 E8.9117
; tool H18.000 W17.967
G1 X89.502 Y107.201 E8.9209
; tool H18.000 W17.993
G1 X90.130 Y107.194 E10.3525
; tool H18.000 W18.000
G1 X93.602 Y107.194 E57.3033
; tool H18.000 W18.000
G1 X172.439 Y107.194 E1300.8711
; tool H18.000 W18.000
G1 X175.916 Y107.194 E57.3875
; tool H18.000 W17.999
G1 X177.943 Y107.238 E33.4509
; tool H18.000 W17.978
G1 X179.869 Y107.354 E31.7975
; tool H18.000 W17.920
G1 X181.795 Y107.542 E31.7850
; tool H18.000 W17.835
G1 X183.703 Y107.813 E31.5073
; tool H18.000 W17.731
G1 X185.617 Y108.163 E31.6294
; tool H18.000 W17.602
G1 X187.221 Y108.511 E26.4877
; tool H18.000 W17.426
G1 X189.900 Y109.208 E44.2189
; tool H18.000 W17.275
G1 X192.721 Y110.015 E46.4739
; tool H18.000 W17.222
G1 X195.354 Y110.797 E43.3624
; tool H18.000 W17.172
G1 X197.324 Y111.446 E32.6544
; tool H18.000 W17.107
G1 X199.301 Y112.111 E32.7008
; tool H18.000 W17.028
G1 X200.874 Y112.679 E26.1141
; tool H18.000 W16.927
G1 X202.439 Y113.248 E25.8405
; tool H18.000 W16.792
G1 X204.834 Y114.226 E39.8230
; tool H18.000 W16.588
G1 X207.037 Y115.205 E36.6601
; tool H18.000 W16.334
G1 X209.183 Y116.250 E35.7415
; tool H18.000 W16.048
G1 X211.216 Y117.350 E34.0030
; tool H18.000 W15.725
G1 X213.286 Y118.568 E34.6234
; tool H18.000 W15.360
G1 X215.284 Y119.849 E33.4209
; tool H18.000 W15.021
G1 X217.379 Y121.248 E34.6918
; tool H18.000 W14.738
G1 X220.041 Y123.121 E43.9708
; tool H18.000 W14.551
G1 X222.671 Y125.068 E43.6530
; tool H18.000 W14.490
G1 X225.378 Y127.135 E45.2351
; tool H18.000 W14.540
G1 X227.602 Y128.783 E36.9000
; tool H18.000 W14.650
G1 X229.719 Y130.352 E35.3891
; tool H18.000 W14.739
G1 X231.962 Y131.986 E37.4982
; tool H18.000 W14.845
G1 X234.072 Y133.452 E34.9685
; tool H18.000 W14.982
G1 X236.068 Y134.837 E33.3613
; tool H18.000 W15.085
G1 X238.213 Y136.281 E35.7726
; tool H18.000 W15.205
G1 X240.723 Y137.875 E41.4404
; tool H18.000 W15.373
G1 X243.242 Y139.473 E42.0298
; tool H18.000 W15.533
G1 X245.457 Y140.753 E36.4339
; tool H18.000 W15.681
G1 X247.642 Y142.011 E36.2511
; tool H18.000 W15.848
G1 X249.980 Y143.270 E38.5788
; tool H18.000 W16.118
G1 X252.489 Y144.469 E41.0915
; tool H18.000 W16.423
G1 X254.918 Y145.575 E40.1854
; tool H18.000 W16.623
G1 X258.464 Y146.863 E57.4800
; tool H18.000 W16.634
G1 X261.985 Y148.001 E56.4256
; tool H18.000 W16.568
G1 X265.439 Y149.046 E54.8075
; tool H18.000 W16.553
G1 X268.759 Y150.046 E52.6290
; tool H18.000 W16.537
G1 X272.164 Y151.072 E53.9012
; tool H18.000 W16.556
G1 X275.431 Y152.019 E51.6320
; tool H18.000 W16.611
G1 X278.615 Y152.942 E50.4721
; tool H18.000 W16.665
G1 X281.798 Y153.865 E50.6371
; tool H18.000 W16.719
G1 X284.982 Y154.788 E50.8020
; tool H18.000 W16.774
G1 X288.209 Y155.723 E51.6626
; tool H18.000 W16.838
G1 X291.383 Y156.616 E50.9035
; tool H18.000 W16.902
G1 X294.516 Y157.488 E50.3941
; tool H18.000 W16.955
G1 X297.650 Y158.360 E50.5527
; tool H18.000 W17.008
G1 X300.783 Y159.232 E50.7114
; tool H18.000 W17.061
G1 X303.916 Y160.104 E50.8701
; tool H18.000 W17.115
G1 X307.050 Y160.975 E51.0287
; tool H18.000 W17.168
G1 X310.183 Y161.847 E51.1874
; tool H18.000 W17.221
G1 X313.316 Y162.719 E51.3461
; tool H18.000 W17.269
G1 X316.451 Y163.586 E51.4885
; tool H18.000 W17.298
G1 X319.620 Y164.447 E52.0749
; tool H18.000 W17.327
G1 X323.012 Y165.357 E55.7838
; tool H18.000 W17.368
G1 X326.374 Y166.258 E55.4151
; tool H18.000 W17.410
G1 X329.736 Y167.159 E55.5477
; tool H18.000 W17.451
G1 X333.097 Y168.060 E55.6802
; tool H18.000 W17.493
G1 X336.459 Y168.961 E55.8127
; tool H18.000 W17.535
G1 X339.821 Y169.862 E55.9453
; tool H18.000 W17.555
G1 X343.188 Y170.742 E56.0087
; tool H18.000 W17.553
G1 X346.555 Y171.622 E56.0033
; tool H18.000 W17.551
G1 X349.965 Y172.512 E56.7018
; tool H18.000 W17.565
G1 X353.231 Y173.348 E54.2816
; tool H18.000 W17.612
G1 X359.677 Y174.998 E107.4364
; tool H18.000 W17.659
G1 X362.900 Y175.823 E53.8605
; tool H18.000 W17.670
G1 X366.128 Y176.628 E53.8925
; tool H18.000 W17.651
G1 X372.586 Y178.235 E107.6745
; tool H18.000 W17.632
G1 X375.866 Y179.052 E54.6440
; tool H18.000 W17.639
G1 X379.127 Y179.842 E54.2524
; tool H18.000 W17.666
G1 X382.335 Y180.620 E53.4669
; tool H18.000 W17.693
G1 X385.544 Y181.397 E53.5478
; tool H18.000 W17.677
G1 X395.186 Y183.663 E160.4998
; tool H18.000 W17.638
G1 X398.400 Y184.418 E53.3830
; tool H18.000 W17.619
G1 X401.672 Y185.187 E54.2909
; tool H18.000 W17.621
G1 X404.780 Y185.895 E51.4862
; tool H18.000 W17.640
G1 X407.830 Y186.584 E50.5727
; tool H18.000 W17.625
G1 X413.939 Y187.928 E101.0579
; tool H18.000 W17.581
G1 X420.047 Y189.273 E100.8086
; tool H18.000 W17.548
G1 X423.163 Y189.959 E51.3166
; tool H18.000 W17.550
G1 X426.484 Y190.665 E54.6383
; tool H18.000 W17.560
G1 X429.748 Y191.345 E53.6643
; tool H18.000 W17.532
G1 X436.280 Y192.681 E107.1568
; tool H18.000 W17.492
G1 X439.546 Y193.350 E53.4565
; tool H18.000 W17.465
G1 X442.878 Y194.032 E54.4668
; tool H18.000 W17.464
G1 X445.967 Y194.639 E50.3867
; tool H18.000 W17.482
G1 X448.989 Y195.227 E49.3452
; tool H18.000 W17.463
G1 X455.041 Y196.366 E98.5823
; tool H18.000 W17.425
G1 X458.066 Y196.936 E49.1839
; tool H18.000 W17.399
G1 X461.168 Y197.520 E50.3380
; tool H18.000 W17.401
G1 X464.303 Y198.082 E50.8117
; tool H18.000 W17.431
G1 X467.363 Y198.630 E49.6698
; tool H18.000 W17.441
G1 X470.426 Y199.159 E49.6971
; tool H18.000 W17.414
G1 X476.554 Y200.205 E99.2437
; tool H18.000 W17.382
G1 X479.703 Y200.742 E50.9067
; tool H18.000 W17.391
G1 X482.805 Y201.240 E50.0833
; tool H18.000 W17.431
G1 X485.821 Y201.724 E48.8170
; tool H18.000 W17.458
G1 X488.840 Y202.196 E48.8920
; tool H18.000 W17.453
G1 X494.880 Y203.113 E97.7569
; tool H18.000 W17.435
G1 X497.990 Y203.585 E50.2709
; tool H18.000 W17.459
G1 X501.540 Y204.086 E57.3757
; tool H18.000 W17.518
G1 X505.000 Y204.575 E56.1199
; tool H18.000 W17.557
G1 X508.462 Y205.044 E56.2439
; tool H18.000 W17.566
G1 X511.927 Y205.503 E56.2720
; tool H18.000 W17.564
G1 X515.478 Y205.973 E57.6792
; tool H18.000 W17.597
G1 X518.997 Y206.403 E57.1951
; tool H18.000 W17.665
G1 X522.429 Y206.822 E55.9927
; tool H18.000 W17.722
G1 X525.863 Y207.232 E56.1714
; tool H18.000 W17.747
G1 X529.298 Y207.620 E56.2514
; tool H18.000 W17.752
G1 X532.815 Y208.017 E57.5892
; tool H18.000 W17.790
G1 X536.387 Y208.388 E58.5796
; tool H18.000 W17.859
G1 X539.879 Y208.751 E57.4781
; tool H18.000 W17.925
G1 X543.372 Y209.110 E57.6901
; tool H18.000 W17.941
G1 X546.868 Y209.423 E57.7387
; tool H18.000 W17.909
G1 X550.440 Y209.741 E58.8783
; tool H18.000 W17.906
G1 X553.824 Y210.015 E55.7201
; tool H18.000 W17.945
G1 X560.440 Y210.550 E109.1945
; tool H18.000 W17.975
G1 X563.749 Y210.807 E54.6870
; tool H18.000 W17.964
G1 X567.059 Y211.047 E54.6541
; tool H18.000 W17.935
G1 X570.436 Y211.292 E55.6682
; tool H18.000 W17.931
G1 X573.873 Y211.515 E56.6145
; tool H18.000 W17.962
G1 X580.613 Y211.952 E111.2192
; tool H18.000 W17.989
G1 X583.983 Y212.167 E55.6939
; tool H18.000 W17.981
G1 X587.355 Y212.360 E55.6671
; tool H18.000 W17.950
G1 X590.792 Y212.557 E56.6614
; tool H18.000 W17.944
G1 X594.047 Y212.720 E53.6143
; tool H18.000 W17.982
G1 X603.615 Y213.197 E157.9068
; tool H18.000 W18.012
G1 X606.804 Y213.349 E52.7224
; tool H18.000 W17.998
G1 X609.994 Y213.483 E52.6833
; tool H18.000 W17.967
G1 X613.261 Y213.621 E53.8593
; tool H18.000 W17.964
G1 X616.770 Y213.739 E57.8128
; tool H18.000 W18.003
G1 X623.633 Y213.969 E113.3360
; tool H18.000 W18.009
G1 X627.066 Y214.052 E56.6883
; tool H18.000 W17.969
G1 X630.581 Y214.136 E57.9167
; tool H18.000 W17.959
G1 X633.875 Y214.185 E54.2405
; tool H18.000 W17.990
G1 X640.299 Y214.280 E105.9574
; tool H18.000 W18.020
G1 X643.511 Y214.326 E53.0675
; tool H18.000 W18.022
G1 X646.723 Y214.355 E53.0730
; tool H18.000 W18.007
G1 X650.036 Y214.385 E54.6982
; tool H18.000 W17.998
G1 X653.161 Y214.350 E51.5649
; tool H18.000 W17.993
G1 X665.257 Y214.214 E199.5299
; tool H18.000 W17.989
G1 X668.360 Y214.179 E51.1682
; tool H18.000 W17.993
G1 X671.807 Y214.085 E56.8789
; tool H18.000 W17.985
G1 X681.911 Y213.785 E166.6676
; tool H18.000 W17.968
G1 X685.352 Y213.683 E56.7055
; tool H18.000 W17.983
G1 X688.588 Y213.557 E53.3894
; tool H18.000 W17.987
G1 X701.237 Y212.976 E208.7955
; tool H18.000 W17.968
G1 X704.462 Y212.828 E53.1673
; tool H18.000 W17.975
G1 X708.049 Y212.629 E59.2129
; tool H18.000 W17.987
G1 X718.625 Y212.010 E174.6777
; tool H18.000 W17.980
G1 X722.150 Y211.796 E58.2050
; tool H18.000 W17.952
G1 X725.744 Y211.564 E59.2824
; tool H18.000 W17.940
G1 X729.381 Y211.302 E59.9610
; tool H18.000 W17.963
G1 X736.512 Y210.786 E117.7448
; tool H18.000 W17.980
G1 X740.077 Y210.521 E58.9266
; tool H18.000 W17.961
G1 X743.641 Y210.236 E58.8660
; tool H18.000 W17.922
G1 X747.281 Y209.945 E59.9915
; tool H18.000 W17.912
G1 X750.892 Y209.625 E59.5299
; tool H18.000 W17.934
G1 X754.427 Y209.312 E58.3453
; tool H18.000 W17.943
G1 X757.961 Y208.986 E58.3757
; tool H18.000 W17.911
G1 X761.492 Y208.632 E58.2740
; tool H18.000 W17.850
G1 X765.102 Y208.269 E59.3641
; tool H18.000 W17.819
G1 X768.470 Y207.901 E55.3508
; tool H18.000 W17.822
G1 X775.050 Y207.182 E108.1382
; tool H18.000 W17.809
G1 X778.338 Y206.808 E54.0320
; tool H18.000 W17.766
G1 X781.710 Y206.409 E55.3000
; tool H18.000 W17.741
G1 X785.241 Y205.957 E57.8963
; tool H18.000 W17.756
G1 X795.579 Y204.633 E169.6472
; tool H18.000 W17.747
G1 X799.110 Y204.156 E57.9624
; tool H18.000 W17.735
G1 X802.524 Y203.654 E56.1032
; tool H18.000 W17.766
G1 X812.503 Y202.185 E164.2775
; tool H18.000 W17.797
G1 X815.912 Y201.683 E56.2251
; tool H18.000 W17.818
G1 X819.448 Y201.099 E58.5388
; tool H18.000 W17.851
G1 X826.354 Y199.954 E114.5498
; tool H18.000 W17.883
